icons/hicolor/16x16/actions/icon-app-launcher-symbolic.svg

<?xml version="1.0" encoding="UTF-8" standalone="no"?>
<svg
   xmlns:dc="http://purl.org/dc/elements/1.1/"
   xmlns:cc="http://creativecommons.org/ns#"
   xmlns:rdf="http://www.w3.org/1999/02/22-rdf-syntax-ns#"
   xmlns:svg="http://www.w3.org/2000/svg"
   xmlns="http://www.w3.org/2000/svg"
   xmlns:sodipodi="http://sodipodi.sourceforge.net/DTD/sodipodi-0.dtd"
   xmlns:inkscape="http://www.inkscape.org/namespaces/inkscape"
   inkscape:version="1.0 (4035a4fb49, 2020-05-01)"
   sodipodi:docname="app-launcher-symbolic.svg"
   width="64"
   height="64"
   version="1.1"
   id="svg24">
  <sodipodi:namedview
     inkscape:document-rotation="0"
     inkscape:current-layer="svg24"
     inkscape:window-maximized="1"
     inkscape:window-y="40"
     inkscape:window-x="0"
     inkscape:cy="32"
     inkscape:cx="27.254237"
     inkscape:zoom="3.6875"
     showgrid="false"
     id="namedview245"
     inkscape:window-height="898"
     inkscape:window-width="1920"
     inkscape:pageshadow="2"
     inkscape:pageopacity="0"
     guidetolerance="10"
     gridtolerance="10"
     objecttolerance="10"
     borderopacity="1"
     bordercolor="#666666"
     pagecolor="#ffffff" />
  <metadata
     id="metadata30">
    <rdf:RDF>
      <cc:Work
         rdf:about="">
        <dc:format>image/svg+xml</dc:format>
        <dc:type
           rdf:resource="http://purl.org/dc/dcmitype/StillImage" />
        <dc:title />
      </cc:Work>
    </rdf:RDF>
  </metadata>
  <defs
     id="defs28" />
  <path
     style="fill:#cccccc;stroke-width:1.425"
     d="M 31.999999,3.5000005 C 16.210999,3.5000005 3.4999997,16.211 3.4999997,32 c 0,15.789 12.7109993,28.5 28.4999993,28.5 C 47.788999,60.5 60.5,47.789 60.5,32 60.5,16.211 47.788999,3.5000005 31.999999,3.5000005 Z m -14.25,12.8249985 H 20.6 c 1.5789,0 2.849999,1.271102 2.849999,2.850001 v 2.849999 C 23.449999,23.603899 22.1789,24.875 20.6,24.875 H 17.749999 C 16.171099,24.875 14.9,23.603899 14.9,22.024999 V 19.175 c 0,-1.5789 1.271099,-2.850001 2.849999,-2.850001 z m 12.824999,0 h 2.850001 c 1.5789,0 2.849999,1.271102 2.849999,2.850001 v 2.849999 c 0,1.5789 -1.271099,2.850001 -2.849999,2.850001 h -2.850001 c -1.5789,0 -2.849999,-1.271101 -2.849999,-2.850001 V 19.175 c 0,-1.5789 1.271099,-2.850001 2.849999,-2.850001 z m 12.825001,0 h 2.85 c 1.578901,0 2.85,1.271102 2.85,2.850001 v 2.849999 c 0,1.5789 -1.271099,2.850001 -2.85,2.850001 h -2.85 C 41.821099,24.875 40.55,23.603899 40.55,22.024999 V 19.175 c 0,-1.5789 1.271099,-2.850001 2.849999,-2.850001 z M 17.749999,27.725 H 20.6 c 1.5789,0 2.849999,1.271099 2.849999,2.85 v 2.85 c 0,1.5789 -1.271099,2.85 -2.849999,2.85 H 17.749999 C 16.171099,36.275 14.9,35.0039 14.9,33.425 v -2.85 c 0,-1.5789 1.271099,-2.85 2.849999,-2.85 z m 12.824999,0 h 2.850001 c 1.5789,0 2.849999,1.271099 2.849999,2.85 v 2.85 c 0,1.5789 -1.271099,2.85 -2.849999,2.85 h -2.850001 c -1.5789,0 -2.849999,-1.2711 -2.849999,-2.85 v -2.85 c 0,-1.5789 1.271099,-2.85 2.849999,-2.85 z m 12.825001,0 h 2.85 c 1.578901,0 2.85,1.271099 2.85,2.85 v 2.85 c 0,1.5789 -1.271099,2.85 -2.85,2.85 h -2.85 c -1.5789,0 -2.849999,-1.2711 -2.849999,-2.85 v -2.85 c 0,-1.5789 1.271099,-2.85 2.849999,-2.85 z m -25.65,11.4 H 20.6 c 1.5789,0 2.849999,1.271099 2.849999,2.85 v 2.850001 c 0,1.578899 -1.271099,2.849998 -2.849999,2.849998 H 17.749999 C 16.171099,47.674999 14.9,46.4039 14.9,44.825001 V 41.975 c 0,-1.5789 1.271099,-2.85 2.849999,-2.85 z m 12.824999,0 h 2.850001 c 1.5789,0 2.849999,1.271099 2.849999,2.85 v 2.850001 c 0,1.578899 -1.271099,2.849998 -2.849999,2.849998 h -2.850001 c -1.5789,0 -2.849999,-1.271099 -2.849999,-2.849998 V 41.975 c 0,-1.5789 1.271099,-2.85 2.849999,-2.85 z m 12.825001,0 h 2.85 c 1.578901,0 2.85,1.271099 2.85,2.85 v 2.850001 c 0,1.578899 -1.271099,2.849998 -2.85,2.849998 h -2.85 C 41.821099,47.674999 40.55,46.4039 40.55,44.825001 V 41.975 c 0,-1.5789 1.271099,-2.85 2.849999,-2.85 z"
     id="path4" />
</svg>

<svg xmlns="http://www.w3.org/2000/svg" width="64" height="64"><path d="M32 3.5A28.44 28.44 0 0 0 3.5 32 28.44 28.44 0 0 0 32 60.5 28.44 28.44 0 0 0 60.5 32 28.44 28.44 0 0 0 32 3.5M17.75 16.325h2.85a2.844 2.844 0 0 1 2.85 2.85v2.85a2.844 2.844 0 0 1-2.85 2.85h-2.85a2.844 2.844 0 0 1-2.85-2.85v-2.85a2.844 2.844 0 0 1 2.85-2.85m12.825 0h2.85a2.844 2.844 0 0 1 2.85 2.85v2.85a2.844 2.844 0 0 1-2.85 2.85h-2.85a2.844 2.844 0 0 1-2.85-2.85v-2.85a2.844 2.844 0 0 1 2.85-2.85m12.825 0h2.85a2.844 2.844 0 0 1 2.85 2.85v2.85a2.844 2.844 0 0 1-2.85 2.85H43.4a2.844 2.844 0 0 1-2.85-2.85v-2.85a2.844 2.844 0 0 1 2.85-2.85m-25.65 11.4h2.85a2.844 2.844 0 0 1 2.85 2.85v2.85a2.844 2.844 0 0 1-2.85 2.85h-2.85a2.844 2.844 0 0 1-2.85-2.85v-2.85a2.844 2.844 0 0 1 2.85-2.85m12.825 0h2.85a2.844 2.844 0 0 1 2.85 2.85v2.85a2.844 2.844 0 0 1-2.85 2.85h-2.85a2.844 2.844 0 0 1-2.85-2.85v-2.85a2.844 2.844 0 0 1 2.85-2.85m12.825 0h2.85a2.844 2.844 0 0 1 2.85 2.85v2.85a2.844 2.844 0 0 1-2.85 2.85H43.4a2.844 2.844 0 0 1-2.85-2.85v-2.85a2.844 2.844 0 0 1 2.85-2.85m-25.65 11.4h2.85a2.844 2.844 0 0 1 2.85 2.85v2.85a2.844 2.844 0 0 1-2.85 2.85h-2.85a2.844 2.844 0 0 1-2.85-2.85v-2.85a2.844 2.844 0 0 1 2.85-2.85m12.825 0h2.85a2.844 2.844 0 0 1 2.85 2.85v2.85a2.844 2.844 0 0 1-2.85 2.85h-2.85a2.844 2.844 0 0 1-2.85-2.85v-2.85a2.844 2.844 0 0 1 2.85-2.85m12.825 0h2.85a2.844 2.844 0 0 1 2.85 2.85v2.85a2.844 2.844 0 0 1-2.85 2.85H43.4a2.844 2.844 0 0 1-2.85-2.85v-2.85a2.844 2.844 0 0 1 2.85-2.85" style="fill:#ccc;stroke-width:1.425"/></svg>
